!!!COM: Bach, Johann Sebastian
!!!OPR: Joh. Seb. Bachs vierstimmige Choralgesänge
!!!XEN: Four-part Chorales
!!!OTL: Chorale 83. Herr Jesu Christ, wahr, Mensch und Gott
!!!SCT: BWV 336
!!!SCA: Thematisch-systematisches Verzeichnis der musikalischen Werke Johann Sebastian Bach: Bach-Werke-Verzeichnis (Schmieder)
!!!YOR: Bach Gesellschaft Edition xxxix
!!!ENC: Steven Rasmussen
!!!CDT: 1685/3//-1750/7/28/
!!!OCY: Deutschland
!!!YEC: Copyright (c) 1994, 2000 Center for Computer Assisted Research in the Humanities
!!!YEM: Rights to all derivative editions reserved
!!!YEN: United States of America
**kern	**kern	**kern	**kern	**silbe
*I:[BASSO]	*I:[TENORE]	*I:[ALTO]	*I:[SOPRANO]	*I:[SOPRANO]
*clefF4	*clefGv2	*clefG2	*clefG2	*
*k[f#c#g#]	*k[f#c#g#]	*k[f#c#g#]	*k[f#c#g#]	*
*A:	*A:	*A:	*A:	*
*M4/4	*M4/4	*M4/4	*M4/4	*
8AAL	8c#L	4e	4a	Herr
8BBJ	8dJ	.	.	.
=1	=1	=1	=1	=1
8C#L	4e	8eL	4a	Je-
8BBJ	.	8dJ	.	.
4AA	4e	8c#L	4a	-su
.	.	8BJ	.	.
8DL	4d	4A	4f#	Christ,
8C#J	.	.	.	.
4BB	4d#	8f#L	4b	wahr'
.	.	8g#J	.	.
=2	=2	=2	=2	=2
4C#	4e	8g#L	4a	Mensch
.	.	16f#L	.	.
.	.	16eJJ	.	.
4D#	4B	4f#	4a	und
4E;	4B;	4e;	4g#;	Gott,
4A	4A	4e	4cc#	der
=3	=3	=3	=3	=3
8AL	4e	4a	4cc#	du
8G#J	.	.	.	.
8F#L	4f#	4a	4cc#	litt'st
8EJ	.	.	.	.
4D#	4B	4a	4ff#	Mar-
8EL	4B	4g#	4ee	-ter,
8F#J	.	.	.	.
=4	=4	=4	=4	=4
8G#L	4B	4g#	4ee	Angst
8AJ	.	.	.	.
4B	4B	8f#L	4dd#	und
.	.	8aJ	.	.
4E;	4B;	(8aL	4ee;	Spott,
.	.	8g#;J)	.	.
4E#	8c#L	4g#	4cc#	für
.	8BJ	.	.	.
=5	=5	=5	=5	=5
4F#	8AL	4f#	4cc#	mich
.	8G#J	.	.	.
4Gn	4A#	4e	4cc#	am
4F#	8A#L	4f#	4dd	Kreuz
.	8BJ	.	.	.
4E	8BL	4gn	4cc#	auch
.	8A#J	.	.	.
=6	=6	=6	=6	=6
8DL	8BL	8f#L	4b	end-
8EJ	8eJ	8gnJ	.	.
4F#	4c#	8f#L	4a#	-lich
.	.	8eJ	.	.
4BB;	4B;	(8eL	4b;	starbst
.	.	8d;J)	.	.
4AA	4e	4a	4cc#	und
=7	=7	=7	=7	=7
8AL	4e	4a	4cc#	mir
8G#J	.	.	.	.
8F#L	4f#	4a	4cc#	dein's
8EJ	.	.	.	.
8D#L	8f#L	8aL	4b	Va-
8E#J	8c#J	8g#J	.	.
4F#	4c#	8g#L	4a	-ters
.	.	8f#J	.	.
=8	=8	=8	=8	=8
8C#L	8c#L	8eL	4a	Huld
8DJ	8BJ	8f#J	.	.
4E	8BL	8f#L	4g#	er-
.	16c#L	8eJ	.	.
.	16dJJ	.	.	.
4AA;	4c#;	4e;	4a;	-warbst.
==|!	==|!	==|!	==|!	==|!
*-	*-	*-	*-	*-
!!!RWG: Key is interpreted using the Humdrum key tool.
!!!URL-pdf: https://s9.imslp.org/files/imglnks/usimg/6/6b/IMSLP24489-PMLP09471-CCARH_Bach_Chorales.pdf#page=58 Musedata edition
!!!URL-pdf: https://s9.imslp.org/files/imglnks/usimg/7/7a/IMSLP04155-Bach_-_BGA_253-438.pdf#page=45 	Bach-Gesellschaft Ausgabe, Band 39 (pp.175-276) Leipzig: Breitkopf und Härtel, 1892. Plate B.W. XXXIX.
!!!END: 1994/06/10
!!!EMD: Converted from MuseData to Humdrum Dec 19, 2000, by Andreas Kornstaedt using muse2kern.
!!!EED: Craig Stuart Sapp
!!!EEV: 2024/03/31
!!!filter-keyboard: extract -i kern | satb2gs
!!!title: @{OTL} (@{SCT})
